images/50543924.svg

<?xml version="1.0" encoding="UTF-8"?>
<svg xmlns="http://www.w3.org/2000/svg" xmlns:xlink="http://www.w3.org/1999/xlink" width="300pt" height="300pt" viewBox="0 0 300 300" version="1.1">
<defs>
<g>
<symbol overflow="visible" id="glyph0-0">
<path style="stroke:none;" d="M 0.453125 1.59375 L 0.453125 -6.34375 L 4.953125 -6.34375 L 4.953125 1.59375 Z M 0.953125 1.09375 L 4.453125 1.09375 L 4.453125 -5.84375 L 0.953125 -5.84375 Z M 0.953125 1.09375 "/>
</symbol>
<symbol overflow="visible" id="glyph0-1">
<path style="stroke:none;" d="M 0.890625 -6.5625 L 4.65625 -6.5625 L 4.65625 -5.8125 L 1.765625 -5.8125 L 1.765625 -3.875 L 4.375 -3.875 L 4.375 -3.140625 L 1.765625 -3.140625 L 1.765625 0 L 0.890625 0 Z M 0.890625 -6.5625 "/>
</symbol>
<symbol overflow="visible" id="glyph0-2">
<path style="stroke:none;" d="M 0.890625 -6.5625 L 2.078125 -6.5625 L 4.984375 -1.078125 L 4.984375 -6.5625 L 5.84375 -6.5625 L 5.84375 0 L 4.65625 0 L 1.75 -5.484375 L 1.75 0 L 0.890625 0 Z M 0.890625 -6.5625 "/>
</symbol>
<symbol overflow="visible" id="glyph0-3">
<path style="stroke:none;" d="M 0.890625 -6.5625 L 1.765625 -6.5625 L 1.765625 -3.875 L 5 -3.875 L 5 -6.5625 L 5.890625 -6.5625 L 5.890625 0 L 5 0 L 5 -3.125 L 1.765625 -3.125 L 1.765625 0 L 0.890625 0 Z M 0.890625 -6.5625 "/>
</symbol>
</g>
</defs>
<g id="surface25413">
<rect x="0" y="0" width="300" height="300" style="fill:rgb(100%,100%,100%);fill-opacity:1;stroke:none;"/>
<path style="fill:none;stroke-width:1.2;stroke-linecap:butt;stroke-linejoin:miter;stroke:rgb(20%,80%,80%);stroke-opacity:1;stroke-miterlimit:10;" d="M 127.226562 81.011719 L 134.714844 90.449219 "/>
<path style="fill:none;stroke-width:1.2;stroke-linecap:butt;stroke-linejoin:miter;stroke:rgb(0%,0%,0%);stroke-opacity:1;stroke-miterlimit:10;" d="M 134.714844 90.449219 L 142.199219 99.890625 "/>
<path style=" stroke:none;fill-rule:nonzero;fill:rgb(100%,100%,100%);fill-opacity:1;" d="M 121.226562 75.511719 L 127.226562 75.511719 L 127.226562 86.511719 L 121.226562 86.511719 Z M 121.226562 75.511719 "/>
<g style="fill:rgb(20%,80%,80%);fill-opacity:1;">
  <use xlink:href="#glyph0-1" x="121.226562" y="84.174805"/>
</g>
<path style="fill:none;stroke-width:1.2;stroke-linecap:butt;stroke-linejoin:miter;stroke:rgb(0%,0%,0%);stroke-opacity:1;stroke-miterlimit:10;" d="M 142.199219 99.890625 L 166.039062 96.359375 "/>
<path style="fill:none;stroke-width:1.2;stroke-linecap:butt;stroke-linejoin:miter;stroke:rgb(0%,0%,0%);stroke-opacity:1;stroke-miterlimit:10;" d="M 145.414062 105.144531 L 164.484375 102.320312 "/>
<path style="fill:none;stroke-width:1.2;stroke-linecap:butt;stroke-linejoin:miter;stroke:rgb(0%,0%,0%);stroke-opacity:1;stroke-miterlimit:10;" d="M 133.339844 122.296875 L 142.199219 99.890625 "/>
<path style="fill:none;stroke-width:1.2;stroke-linecap:butt;stroke-linejoin:miter;stroke:rgb(0%,0%,0%);stroke-opacity:1;stroke-miterlimit:10;" d="M 166.039062 96.359375 L 181.011719 115.234375 "/>
<path style="fill:none;stroke-width:1.2;stroke-linecap:butt;stroke-linejoin:miter;stroke:rgb(0%,0%,0%);stroke-opacity:1;stroke-miterlimit:10;" d="M 181.011719 115.234375 L 172.152344 137.644531 "/>
<path style="fill:none;stroke-width:1.2;stroke-linecap:butt;stroke-linejoin:miter;stroke:rgb(0%,0%,0%);stroke-opacity:1;stroke-miterlimit:10;" d="M 174.855469 115.390625 L 167.765625 133.316406 "/>
<path style="fill:none;stroke-width:1.2;stroke-linecap:butt;stroke-linejoin:miter;stroke:rgb(0%,0%,0%);stroke-opacity:1;stroke-miterlimit:10;" d="M 172.152344 137.644531 L 148.316406 141.175781 "/>
<path style="fill:none;stroke-width:1.2;stroke-linecap:butt;stroke-linejoin:miter;stroke:rgb(0%,0%,0%);stroke-opacity:1;stroke-miterlimit:10;" d="M 172.152344 137.644531 L 187.128906 156.523438 "/>
<path style="fill:none;stroke-width:1.2;stroke-linecap:butt;stroke-linejoin:miter;stroke:rgb(0%,0%,0%);stroke-opacity:1;stroke-miterlimit:10;" d="M 148.316406 141.175781 L 133.339844 122.296875 "/>
<path style="fill:none;stroke-width:1.2;stroke-linecap:butt;stroke-linejoin:miter;stroke:rgb(0%,0%,0%);stroke-opacity:1;stroke-miterlimit:10;" d="M 151.261719 135.761719 L 139.28125 120.660156 "/>
<path style="fill:none;stroke-width:1.2;stroke-linecap:butt;stroke-linejoin:miter;stroke:rgb(0%,0%,0%);stroke-opacity:1;stroke-miterlimit:10;" d="M 187.128906 156.523438 L 199.046875 154.757812 "/>
<path style="fill:none;stroke-width:1.2;stroke-linecap:butt;stroke-linejoin:miter;stroke:rgb(0%,0%,100%);stroke-opacity:1;stroke-miterlimit:10;" d="M 199.046875 154.757812 L 210.964844 152.992188 "/>
<path style="fill:none;stroke-width:1.2;stroke-linecap:butt;stroke-linejoin:miter;stroke:rgb(0%,0%,0%);stroke-opacity:1;stroke-miterlimit:10;" d="M 190.339844 161.777344 L 199.875 160.363281 "/>
<path style="fill:none;stroke-width:1.2;stroke-linecap:butt;stroke-linejoin:miter;stroke:rgb(0%,0%,100%);stroke-opacity:1;stroke-miterlimit:10;" d="M 199.875 160.363281 L 209.410156 158.953125 "/>
<path style="fill:none;stroke-width:1.2;stroke-linecap:butt;stroke-linejoin:miter;stroke:rgb(0%,0%,0%);stroke-opacity:1;stroke-miterlimit:10;" d="M 178.265625 178.929688 L 187.128906 156.523438 "/>
<path style="fill:none;stroke-width:1.2;stroke-linecap:butt;stroke-linejoin:miter;stroke:rgb(0%,0%,100%);stroke-opacity:1;stroke-miterlimit:10;" d="M 210.964844 152.992188 L 218.449219 162.429688 "/>
<path style="fill:none;stroke-width:1.2;stroke-linecap:butt;stroke-linejoin:miter;stroke:rgb(0%,0%,0%);stroke-opacity:1;stroke-miterlimit:10;" d="M 218.449219 162.429688 L 225.9375 171.867188 "/>
<path style=" stroke:none;fill-rule:nonzero;fill:rgb(100%,100%,100%);fill-opacity:1;" d="M 207.964844 147.492188 L 214.964844 147.492188 L 214.964844 158.492188 L 207.964844 158.492188 Z M 207.964844 147.492188 "/>
<g style="fill:rgb(0%,0%,100%);fill-opacity:1;">
  <use xlink:href="#glyph0-2" x="207.964844" y="156.155273"/>
</g>
<path style="fill:none;stroke-width:1.2;stroke-linecap:butt;stroke-linejoin:miter;stroke:rgb(0%,0%,0%);stroke-opacity:1;stroke-miterlimit:10;" d="M 225.9375 171.867188 L 217.078125 194.277344 "/>
<path style="fill:none;stroke-width:1.2;stroke-linecap:butt;stroke-linejoin:miter;stroke:rgb(0%,0%,0%);stroke-opacity:1;stroke-miterlimit:10;" d="M 230.324219 176.195312 L 223.238281 194.121094 "/>
<path style="fill:none;stroke-width:1.2;stroke-linecap:butt;stroke-linejoin:miter;stroke:rgb(0%,0%,0%);stroke-opacity:1;stroke-miterlimit:10;" d="M 249.773438 168.339844 L 225.9375 171.867188 "/>
<path style="fill:none;stroke-width:1.2;stroke-linecap:butt;stroke-linejoin:miter;stroke:rgb(0%,0%,0%);stroke-opacity:1;stroke-miterlimit:10;" d="M 217.078125 194.277344 L 205.160156 196.042969 "/>
<path style="fill:none;stroke-width:1.2;stroke-linecap:butt;stroke-linejoin:miter;stroke:rgb(0%,0%,100%);stroke-opacity:1;stroke-miterlimit:10;" d="M 205.160156 196.042969 L 193.242188 197.808594 "/>
<path style="fill:none;stroke-width:1.2;stroke-linecap:butt;stroke-linejoin:miter;stroke:rgb(0%,0%,0%);stroke-opacity:1;stroke-miterlimit:10;" d="M 217.078125 194.277344 L 232.054688 213.152344 "/>
<path style="fill:none;stroke-width:1.2;stroke-linecap:butt;stroke-linejoin:miter;stroke:rgb(0%,0%,100%);stroke-opacity:1;stroke-miterlimit:10;" d="M 193.242188 197.808594 L 185.753906 188.367188 "/>
<path style="fill:none;stroke-width:1.2;stroke-linecap:butt;stroke-linejoin:miter;stroke:rgb(0%,0%,0%);stroke-opacity:1;stroke-miterlimit:10;" d="M 185.753906 188.367188 L 178.265625 178.929688 "/>
<path style="fill:none;stroke-width:1.2;stroke-linecap:butt;stroke-linejoin:miter;stroke:rgb(0%,0%,100%);stroke-opacity:1;stroke-miterlimit:10;" d="M 196.1875 192.394531 L 190.195312 184.84375 "/>
<path style="fill:none;stroke-width:1.2;stroke-linecap:butt;stroke-linejoin:miter;stroke:rgb(0%,0%,0%);stroke-opacity:1;stroke-miterlimit:10;" d="M 190.195312 184.84375 L 184.207031 177.292969 "/>
<path style=" stroke:none;fill-rule:nonzero;fill:rgb(100%,100%,100%);fill-opacity:1;" d="M 190.242188 192.308594 L 197.242188 192.308594 L 197.242188 203.308594 L 190.242188 203.308594 Z M 190.242188 192.308594 "/>
<g style="fill:rgb(0%,0%,100%);fill-opacity:1;">
  <use xlink:href="#glyph0-2" x="190.242188" y="200.97168"/>
</g>
<path style="fill:none;stroke-width:1.2;stroke-linecap:butt;stroke-linejoin:miter;stroke:rgb(0%,0%,0%);stroke-opacity:1;stroke-miterlimit:10;" d="M 178.265625 178.929688 L 154.429688 182.460938 "/>
<path style="fill:none;stroke-width:1.2;stroke-linecap:butt;stroke-linejoin:miter;stroke:rgb(0%,0%,0%);stroke-opacity:1;stroke-miterlimit:10;" d="M 154.429688 182.460938 L 139.453125 163.582031 "/>
<path style="fill:none;stroke-width:1.2;stroke-linecap:butt;stroke-linejoin:miter;stroke:rgb(0%,0%,0%);stroke-opacity:1;stroke-miterlimit:10;" d="M 148.492188 184.09375 L 136.511719 168.992188 "/>
<path style="fill:none;stroke-width:1.2;stroke-linecap:butt;stroke-linejoin:miter;stroke:rgb(0%,0%,0%);stroke-opacity:1;stroke-miterlimit:10;" d="M 145.570312 204.867188 L 154.429688 182.460938 "/>
<path style="fill:none;stroke-width:1.2;stroke-linecap:butt;stroke-linejoin:miter;stroke:rgb(0%,0%,0%);stroke-opacity:1;stroke-miterlimit:10;" d="M 139.453125 163.582031 L 115.617188 167.113281 "/>
<path style="fill:none;stroke-width:1.2;stroke-linecap:butt;stroke-linejoin:miter;stroke:rgb(0%,0%,0%);stroke-opacity:1;stroke-miterlimit:10;" d="M 115.617188 167.113281 L 111.1875 178.316406 "/>
<path style="fill:none;stroke-width:1.2;stroke-linecap:butt;stroke-linejoin:miter;stroke:rgb(0%,0%,100%);stroke-opacity:1;stroke-miterlimit:10;" d="M 111.1875 178.316406 L 106.757812 189.519531 "/>
<path style="fill:none;stroke-width:1.2;stroke-linecap:butt;stroke-linejoin:miter;stroke:rgb(0%,0%,0%);stroke-opacity:1;stroke-miterlimit:10;" d="M 120.003906 171.4375 L 116.460938 180.402344 "/>
<path style="fill:none;stroke-width:1.2;stroke-linecap:butt;stroke-linejoin:miter;stroke:rgb(0%,0%,100%);stroke-opacity:1;stroke-miterlimit:10;" d="M 116.460938 180.402344 L 112.917969 189.363281 "/>
<path style="fill:none;stroke-width:1.2;stroke-linecap:butt;stroke-linejoin:miter;stroke:rgb(0%,0%,0%);stroke-opacity:1;stroke-miterlimit:10;" d="M 115.617188 167.113281 L 108.132812 157.671875 "/>
<path style="fill:none;stroke-width:1.2;stroke-linecap:butt;stroke-linejoin:miter;stroke:rgb(0%,0%,100%);stroke-opacity:1;stroke-miterlimit:10;" d="M 108.132812 157.671875 L 100.644531 148.234375 "/>
<path style="fill:none;stroke-width:1.2;stroke-linecap:butt;stroke-linejoin:miter;stroke:rgb(0%,0%,100%);stroke-opacity:1;stroke-miterlimit:10;" d="M 106.757812 189.519531 L 114.246094 198.957031 "/>
<path style="fill:none;stroke-width:1.2;stroke-linecap:butt;stroke-linejoin:miter;stroke:rgb(0%,0%,0%);stroke-opacity:1;stroke-miterlimit:10;" d="M 114.246094 198.957031 L 121.734375 208.398438 "/>
<path style=" stroke:none;fill-rule:nonzero;fill:rgb(100%,100%,100%);fill-opacity:1;" d="M 103.757812 184.019531 L 110.757812 184.019531 L 110.757812 195.019531 L 103.757812 195.019531 Z M 103.757812 184.019531 "/>
<g style="fill:rgb(0%,0%,100%);fill-opacity:1;">
  <use xlink:href="#glyph0-2" x="103.757812" y="192.682617"/>
</g>
<path style="fill:none;stroke-width:1.2;stroke-linecap:butt;stroke-linejoin:miter;stroke:rgb(0%,0%,0%);stroke-opacity:1;stroke-miterlimit:10;" d="M 121.734375 208.398438 L 145.570312 204.867188 "/>
<path style="fill:none;stroke-width:1.2;stroke-linecap:butt;stroke-linejoin:miter;stroke:rgb(0%,0%,0%);stroke-opacity:1;stroke-miterlimit:10;" d="M 123.285156 202.4375 L 142.355469 199.613281 "/>
<path style=" stroke:none;fill-rule:nonzero;fill:rgb(0%,0%,0%);fill-opacity:1;" d="M 76.808594 151.765625 L 101.265625 152.441406 L 100.019531 144.027344 Z M 76.808594 151.765625 "/>
<path style=" stroke:none;fill-rule:nonzero;fill:rgb(100%,100%,100%);fill-opacity:1;" d="M 93.644531 142.734375 L 107.644531 142.734375 L 107.644531 153.734375 L 93.644531 153.734375 Z M 93.644531 142.734375 "/>
<g style="fill:rgb(0%,0%,100%);fill-opacity:1;">
  <use xlink:href="#glyph0-2" x="93.644531" y="151.397461"/>
  <use xlink:href="#glyph0-3" x="100.62207" y="151.397461"/>
</g>
<path style="fill:none;stroke-width:1.2;stroke-linecap:butt;stroke-linejoin:miter;stroke:rgb(0%,0%,0%);stroke-opacity:1;stroke-miterlimit:10;" d="M 76.808594 151.765625 L 61.832031 132.886719 "/>
<path style="fill:none;stroke-width:1.2;stroke-linecap:butt;stroke-linejoin:miter;stroke:rgb(0%,0%,0%);stroke-opacity:1;stroke-miterlimit:10;" d="M 76.808594 151.765625 L 67.945312 174.171875 "/>
<path style="fill:none;stroke-width:1.2;stroke-linecap:butt;stroke-linejoin:miter;stroke:rgb(0%,0%,0%);stroke-opacity:1;stroke-miterlimit:10;" d="M 67.945312 174.171875 L 44.109375 177.703125 "/>
<path style="fill:none;stroke-width:1.2;stroke-linecap:butt;stroke-linejoin:miter;stroke:rgb(0%,0%,0%);stroke-opacity:1;stroke-miterlimit:10;" d="M 66.394531 180.132812 L 47.324219 182.957031 "/>
<path style="fill:none;stroke-width:1.2;stroke-linecap:butt;stroke-linejoin:miter;stroke:rgb(0%,0%,0%);stroke-opacity:1;stroke-miterlimit:10;" d="M 82.921875 193.050781 L 67.945312 174.171875 "/>
<path style="fill:none;stroke-width:1.2;stroke-linecap:butt;stroke-linejoin:miter;stroke:rgb(0%,0%,0%);stroke-opacity:1;stroke-miterlimit:10;" d="M 44.109375 177.703125 L 35.25 200.109375 "/>
<path style="fill:none;stroke-width:1.2;stroke-linecap:butt;stroke-linejoin:miter;stroke:rgb(0%,0%,0%);stroke-opacity:1;stroke-miterlimit:10;" d="M 35.25 200.109375 L 50.226562 218.988281 "/>
<path style="fill:none;stroke-width:1.2;stroke-linecap:butt;stroke-linejoin:miter;stroke:rgb(0%,0%,0%);stroke-opacity:1;stroke-miterlimit:10;" d="M 41.1875 198.476562 L 53.167969 213.578125 "/>
<path style="fill:none;stroke-width:1.2;stroke-linecap:butt;stroke-linejoin:miter;stroke:rgb(0%,0%,0%);stroke-opacity:1;stroke-miterlimit:10;" d="M 50.226562 218.988281 L 74.0625 215.457031 "/>
<path style="fill:none;stroke-width:1.2;stroke-linecap:butt;stroke-linejoin:miter;stroke:rgb(0%,0%,0%);stroke-opacity:1;stroke-miterlimit:10;" d="M 74.0625 215.457031 L 82.921875 193.050781 "/>
<path style="fill:none;stroke-width:1.2;stroke-linecap:butt;stroke-linejoin:miter;stroke:rgb(0%,0%,0%);stroke-opacity:1;stroke-miterlimit:10;" d="M 69.675781 211.132812 L 76.761719 193.207031 "/>
<path style="fill:none;stroke-width:1.2;stroke-linecap:butt;stroke-linejoin:miter;stroke:rgb(0%,0%,0%);stroke-opacity:1;stroke-miterlimit:10;" d="M 232.054688 213.152344 L 255.890625 209.625 "/>
<path style="fill:none;stroke-width:1.2;stroke-linecap:butt;stroke-linejoin:miter;stroke:rgb(0%,0%,0%);stroke-opacity:1;stroke-miterlimit:10;" d="M 233.605469 207.191406 L 252.675781 204.367188 "/>
<path style="fill:none;stroke-width:1.2;stroke-linecap:butt;stroke-linejoin:miter;stroke:rgb(0%,0%,0%);stroke-opacity:1;stroke-miterlimit:10;" d="M 255.890625 209.625 L 264.75 187.214844 "/>
<path style="fill:none;stroke-width:1.2;stroke-linecap:butt;stroke-linejoin:miter;stroke:rgb(0%,0%,0%);stroke-opacity:1;stroke-miterlimit:10;" d="M 264.75 187.214844 L 249.773438 168.339844 "/>
<path style="fill:none;stroke-width:1.2;stroke-linecap:butt;stroke-linejoin:miter;stroke:rgb(0%,0%,0%);stroke-opacity:1;stroke-miterlimit:10;" d="M 258.8125 188.851562 L 246.832031 173.75 "/>
</g>
</svg>

<svg xmlns="http://www.w3.org/2000/svg" xmlns:xlink="http://www.w3.org/1999/xlink" width="300pt" height="300pt" viewBox="0 0 300 300"><defs><symbol overflow="visible"><path d="M.453 1.594v-7.938h4.5v7.938zm.5-.5h3.5v-6.938h-3.5zm0 0"/></symbol><symbol overflow="visible" id="a"><path d="M.89-6.563h3.766v.75h-2.89v1.938h2.61v.734h-2.61V0H.89zm0 0"/></symbol><symbol overflow="visible" id="b"><path d="M.89-6.563H2.08l2.906 5.485v-5.484h.86V0H4.656L1.75-5.484V0H.89zm0 0"/></symbol><symbol overflow="visible" id="c"><path d="M.89-6.563h.876v2.688H5v-2.688h.89V0H5v-3.125H1.766V0H.89zm0 0"/></symbol></defs><g><path fill="#fff" d="M0 0h300v300H0z"/><path d="M127.227 81.012l7.488 9.437" stroke-width="1.2" stroke="#3cc" stroke-miterlimit="10" fill="none"/><path d="M134.715 90.45l7.484 9.44" stroke-width="1.2" stroke="#000" stroke-miterlimit="10" fill="none"/><path d="M121.227 75.512h6v11h-6zm0 0" fill="#fff"/><use xlink:href="#a" x="121.227" y="84.175" fill="#3cc"/><path d="M142.2 99.89l23.84-3.53M145.414 105.145l19.07-2.825M133.34 122.297l8.86-22.406M166.04 96.36l14.972 18.874M181.012 115.234l-8.86 22.41M174.855 115.39l-7.09 17.926M172.152 137.645l-23.836 3.53M172.152 137.645l14.977 18.878M148.316 141.176l-14.976-18.88M151.262 135.762l-11.98-15.102M187.13 156.523l11.917-1.765" stroke-width="1.2" stroke="#000" stroke-miterlimit="10" fill="none"/><path d="M199.047 154.758l11.918-1.766" stroke-width="1.2" stroke="#00f" stroke-miterlimit="10" fill="none"/><path d="M190.34 161.777l9.535-1.414" stroke-width="1.2" stroke="#000" stroke-miterlimit="10" fill="none"/><path d="M199.875 160.363l9.535-1.41" stroke-width="1.2" stroke="#00f" stroke-miterlimit="10" fill="none"/><path d="M178.266 178.93l8.863-22.407" stroke-width="1.2" stroke="#000" stroke-miterlimit="10" fill="none"/><path d="M210.965 152.992l7.484 9.438" stroke-width="1.2" stroke="#00f" stroke-miterlimit="10" fill="none"/><path d="M218.45 162.43l7.488 9.437" stroke-width="1.2" stroke="#000" stroke-miterlimit="10" fill="none"/><path d="M207.965 147.492h7v11h-7zm0 0" fill="#fff"/><use xlink:href="#b" x="207.965" y="156.155" fill="#00f"/><path d="M225.938 171.867l-8.86 22.41M230.324 176.195l-7.086 17.926M249.773 168.34l-23.835 3.527M217.078 194.277l-11.918 1.766" stroke-width="1.2" stroke="#000" stroke-miterlimit="10" fill="none"/><path d="M205.16 196.043l-11.918 1.766" stroke-width="1.2" stroke="#00f" stroke-miterlimit="10" fill="none"/><path d="M217.078 194.277l14.977 18.875" stroke-width="1.2" stroke="#000" stroke-miterlimit="10" fill="none"/><path d="M193.242 197.81l-7.488-9.443" stroke-width="1.2" stroke="#00f" stroke-miterlimit="10" fill="none"/><path d="M185.754 188.367l-7.488-9.437" stroke-width="1.2" stroke="#000" stroke-miterlimit="10" fill="none"/><path d="M196.188 192.395l-5.993-7.55" stroke-width="1.2" stroke="#00f" stroke-miterlimit="10" fill="none"/><path d="M190.195 184.844l-5.988-7.55" stroke-width="1.2" stroke="#000" stroke-miterlimit="10" fill="none"/><path d="M190.242 192.31h7v11h-7zm0 0" fill="#fff"/><use xlink:href="#b" x="190.242" y="200.972" fill="#00f"/><path d="M178.266 178.93l-23.836 3.53M154.43 182.46l-14.977-18.878M148.492 184.094l-11.98-15.102M145.57 204.867l8.86-22.406M139.453 163.582l-23.836 3.53M115.617 167.113l-4.43 11.203" stroke-width="1.2" stroke="#000" stroke-miterlimit="10" fill="none"/><path d="M111.188 178.316l-4.43 11.204" stroke-width="1.2" stroke="#00f" stroke-miterlimit="10" fill="none"/><path d="M120.004 171.438l-3.543 8.964" stroke-width="1.2" stroke="#000" stroke-miterlimit="10" fill="none"/><path d="M116.46 180.402l-3.542 8.96" stroke-width="1.2" stroke="#00f" stroke-miterlimit="10" fill="none"/><path d="M115.617 167.113l-7.484-9.44" stroke-width="1.2" stroke="#000" stroke-miterlimit="10" fill="none"/><path d="M108.133 157.672l-7.488-9.438M106.758 189.52l7.488 9.437" stroke-width="1.2" stroke="#00f" stroke-miterlimit="10" fill="none"/><path d="M114.246 198.957l7.488 9.44" stroke-width="1.2" stroke="#000" stroke-miterlimit="10" fill="none"/><path d="M103.758 184.02h7v11h-7zm0 0" fill="#fff"/><use xlink:href="#b" x="103.758" y="192.683" fill="#00f"/><path d="M121.734 208.398l23.836-3.53M123.285 202.438l19.07-2.825" stroke-width="1.2" stroke="#000" stroke-miterlimit="10" fill="none"/><path d="M76.81 151.766l24.456.675-1.246-8.413zm0 0"/><path d="M93.645 142.734h14v11h-14zm0 0" fill="#fff"/><g fill="#00f"><use xlink:href="#b" x="93.645" y="151.397"/><use xlink:href="#c" x="100.622" y="151.397"/></g><path d="M76.81 151.766l-14.978-18.88M76.81 151.766l-8.865 22.406M67.945 174.172l-23.836 3.53M66.395 180.133l-19.07 2.824M82.922 193.05l-14.977-18.878M44.11 177.703l-8.86 22.406M35.25 200.11l14.977 18.878M41.188 198.477l11.98 15.1M50.227 218.988l23.836-3.53M74.063 215.457l8.86-22.406M69.676 211.133l7.086-17.926M232.055 213.152l23.836-3.527M233.605 207.19l19.07-2.823M255.89 209.625l8.86-22.41M264.75 187.215l-14.977-18.875M258.813 188.852l-11.98-15.102" stroke-width="1.2" stroke="#000" stroke-miterlimit="10" fill="none"/></g></svg>
